svgs/thin/square-question.svg

<svg xmlns="http://www.w3.org/2000/svg" viewBox="0 0 448 512"><!-- Font Awesome Pro 6.0.0-alpha2 by @fontawesome - https://fontawesome.com License - https://fontawesome.com/license (Commercial License) --><path d="M208 352C199.164 352 192 359.164 192 368S199.164 384 208 384S224 376.836 224 368S216.836 352 208 352ZM384 32H64C28.654 32 0 60.654 0 96V416C0 451.346 28.654 480 64 480H384C419.346 480 448 451.346 448 416V96C448 60.654 419.346 32 384 32ZM432 416C432 442.467 410.467 464 384 464H64C37.533 464 16 442.467 16 416V96C16 69.533 37.533 48 64 48H384C410.467 48 432 69.533 432 96V416ZM256.594 128H191.406C156.438 128 128 156.438 128 191.406V202C128 206.422 131.594 210 136 210S144 206.422 144 202V191.406C144 165.266 165.281 144 191.406 144H256.594C282.719 144 304 165.266 304 191.406C304 208.609 294.656 224.484 279.938 232.672L213.844 265.719C204.312 270.984 198.406 281.031 198.406 291.938V312C198.406 316.422 202 320 206.406 320C210.812 320 214.406 316.422 214.406 312V291.938C214.406 286.859 217.156 282.172 221.281 279.875L287.375 246.828C307.5 235.656 320 214.422 320 191.406C320 156.438 291.562 128 256.594 128Z"/></svg>

<svg xmlns="http://www.w3.org/2000/svg" viewBox="0 0 448 512"><!--! Font Awesome Pro 6.3.0 by @fontawesome - https://fontawesome.com License - https://fontawesome.com/license (Commercial License) Copyright 2023 Fonticons, Inc. --><path d="M208 352C199.2 352 192 359.2 192 368S199.2 384 208 384s16-7.164 16-16S216.8 352 208 352zM384 32H64C28.65 32 0 60.65 0 96v320c0 35.35 28.65 64 64 64h320c35.35 0 64-28.65 64-64V96C448 60.65 419.3 32 384 32zM432 416c0 26.47-21.53 48-48 48H64c-26.47 0-48-21.53-48-48V96c0-26.47 21.53-48 48-48h320c26.47 0 48 21.53 48 48V416zM256.6 128H191.4C156.4 128 128 156.4 128 191.4V202c0 4.422 3.594 8 8 8s8-3.578 8-8V191.4C144 165.3 165.3 144 191.4 144h65.19C282.7 144 304 165.3 304 191.4c0 17.2-9.344 33.08-24.06 41.27L213.8 265.7C204.3 270.1 198.4 281 198.4 291.9V312c0 4.422 3.593 8 8 8c4.406 0 8-3.578 8-8V291.9c0-5.078 2.75-9.766 6.875-12.06l66.09-33.05C307.5 235.7 320 214.4 320 191.4C320 156.4 291.6 128 256.6 128z"/></svg>
